svgs/sharp-light/landmark-flag.svg

<svg xmlns="http://www.w3.org/2000/svg" viewBox="0 0 512 512"><!--! Font Awesome Pro 6.6.0 by @fontawesome - https://fontawesome.com License - https://fontawesome.com/license (Commercial License) Copyright 2024 Fonticons, Inc. --><path d="M272 32l0 32 64 0 0-32-64 0zm64 64l-64 0 0 32 192 0 16 0 0 32-16 0L48 160l-16 0 0-32 16 0 192 0 0-32 0-32 0-32 0-16 0-16 16 0 16 0 64 0 32 0 0 32 0 32 0 32-32 0zM48 352l16 0 0-160 32 0 0 160 80 0 0-160 32 0 0 160 96 0 0-160 32 0 0 160 80 0 0-160 32 0 0 160 16 0 0 32-16 0L64 384l-16 0 0-32zm440 64l0 32-16 0L40 448l-16 0 0-32 16 0 432 0 16 0zM0 480l16 0 480 0 16 0 0 32-16 0L16 512 0 512l0-32z"/></svg>

<svg xmlns="http://www.w3.org/2000/svg" viewBox="0 0 512 512"><!--! Font Awesome Pro 6.4.2 by @fontawesome - https://fontawesome.com License - https://fontawesome.com/license (Commercial License) Copyright 2023 Fonticons, Inc. --><path d="M272 32V64h64V32H272zm64 64H272v32H464h16v32H464 48 32V128H48 240V96 64 32 16 0h16 16 64 32V32 64 96H336zM48 352H64V192H96V352h80V192h32V352h96V192h32V352h80V192h32V352h16v32H448 64 48V352zm440 64v32H472 40 24V416H40 472h16zM0 480H16 496h16v32H496 16 0V480z"/></svg>
